svg/fluentui-system-icons/ic_fluent_document_dismiss_16_regular.svg

<svg width="16" height="16" viewBox="0 0 16 16" fill="none" xmlns="http://www.w3.org/2000/svg">
<path d="M4 3C4 1.89543 4.89543 1 6 1H9.58579C9.98361 1 10.3651 1.15804 10.6464 1.43934L13.5607 4.35355C13.842 4.63486 14 5.01639 14 5.41421V13C14 14.1046 13.1046 15 12 15H8.66308C9.06621 14.7161 9.42948 14.3794 9.74284 14H12C12.5523 14 13 13.5523 13 13V6H10.5C9.67157 6 9 5.32843 9 4.5V2H6C5.44771 2 5 2.44772 5 3V5.02242C4.65659 5.05337 4.32228 5.11588 4 5.20703V3ZM10.5 5H12.7929L10 2.20711V4.5C10 4.77614 10.2239 5 10.5 5ZM2.31802 7.31802C0.56066 9.07538 0.56066 11.9246 2.31802 13.682C4.07538 15.4393 6.92462 15.4393 8.68198 13.682C10.4393 11.9246 10.4393 9.07538 8.68198 7.31802C6.92462 5.56066 4.07538 5.56066 2.31802 7.31802ZM7.26777 12.2678C7.0725 12.463 6.75592 12.463 6.56066 12.2678L5.5 11.2071L4.43934 12.2678C4.24408 12.463 3.9275 12.463 3.73223 12.2678C3.53697 12.0725 3.53697 11.7559 3.73223 11.5607L4.79289 10.5L3.73223 9.43934C3.53697 9.24408 3.53697 8.9275 3.73223 8.73223C3.9275 8.53697 4.24408 8.53697 4.43934 8.73223L5.5 9.79289L6.56066 8.73223C6.75592 8.53697 7.0725 8.53697 7.26777 8.73223C7.46303 8.9275 7.46303 9.24408 7.26777 9.43934L6.20711 10.5L7.26777 11.5607C7.46303 11.7559 7.46303 12.0725 7.26777 12.2678Z" fill="#212121"/>
</svg>

<svg xmlns="http://www.w3.org/2000/svg" width="16" height="16"><path d="M4 3a2 2 0 0 1 2-2h3.586a1.5 1.5 0 0 1 1.06.44l2.915 2.914A1.5 1.5 0 0 1 14 5.414V13a2 2 0 0 1-2 2H8.663a5.54 5.54 0 0 0 1.08-1H12a1 1 0 0 0 1-1V6h-2.5A1.5 1.5 0 0 1 9 4.5V2H6a1 1 0 0 0-1 1v2.022a5.48 5.48 0 0 0-1 .185V3Zm6.5 2h2.293L10 2.207V4.5a.5.5 0 0 0 .5.5ZM2.318 7.318a4.5 4.5 0 1 0 6.364 6.364 4.5 4.5 0 0 0-6.364-6.364Zm4.95 4.95a.5.5 0 0 1-.707 0L5.5 11.208l-1.06 1.06a.5.5 0 0 1-.708-.707l1.06-1.061-1.06-1.06a.5.5 0 0 1 .707-.708L5.5 9.792l1.06-1.06a.5.5 0 0 1 .708.707L6.208 10.5l1.06 1.06a.5.5 0 0 1 0 .708Z"/></svg>
